images/logo_twitter.svg

<svg width="20" height="20" fill="none" xmlns="http://www.w3.org/2000/svg"><path d="M11.2343 8.85148 16.5082 2.5h-1.2498l-4.5793 5.5149L7.02168 2.5H2.80322l5.53081 8.3395L2.80322 17.5h1.24981l4.83585-5.8239L12.7514 17.5h4.2185L11.234 8.85148h.0003ZM9.52253 10.913l-.56038-.8305-4.4588-6.60774h1.91963l3.59832 5.3327.5604.83042 4.6773 6.93172h-1.9196l-3.81687-5.6563v-.0003Z" fill="#5F7896"/></svg>

<svg width="20" height="20" viewBox="0 0 20 20" fill="none" xmlns="http://www.w3.org/2000/svg">
<path d="M11.2343 8.85148L16.5082 2.5H15.2584L10.6791 8.0149L7.02168 2.5H2.80322L8.33403 10.8395L2.80322 17.5H4.05303L8.88888 11.6761L12.7514 17.5H16.9699L11.234 8.85148H11.2343ZM9.52253 10.913L8.96215 10.0825L4.50335 3.47476H6.42298L10.0213 8.80746L10.5817 9.63788L15.259 16.5696H13.3394L9.52253 10.9133V10.913Z" fill="#5F7896"/>
</svg>
